X:1
T:O Heiland, reiß die Himmel auf
T:Hugo Distler
T:Köln, 1621
T:1. O Heiland, reiß die Himmel auf O Savior, Tear the Heavens Wide Advent
T:Bärenreiter
T:Bärenreiter
T:Bärenreiter
T:Bärenreiter
C:Hugo Distler
Z:Köln, 1621
Z:Bärenreiter
%%score [ 1 2 ( 3 4 ) ]
L:1/8
Q:1/4=72
M:3/4
K:C
V:1 treble nm="Sop. 1"
V:2 treble nm="Sop. 2"
V:3 treble nm="Alto"
V:4 treble 
V:1
 z2 | z6 | A2 c4 | d2 e2 A2 | (c2 B3 c | d2) B4 | A4 z2 | A2 A2 B2 | c2 (F3 G | A_B) G2 G2 | %10
w: ||1.  O Hei-|land, reiß die|Him- * *|* mel|auf,|her- ab, her-|ab vom _|_ _ Him- mel|
w: ||3. O Erd',|schlag aus, schlag|aus, _ _|_ o|Erd',|daß Berg und|Tal grün _|_ _ al- les|
w: ||5.  O klar-|e Sonn', du|schön- * *|* er|Stern,|dich woll- ten|wir an- *|* * schau- en|
[M:4/4] !breath!F2 c2 c2 c2 |[M:3/4] c2 A2 (d2- |[M:2/4] de) d2 | !breath!c2 A2 | %14
w: lauf! Reiß ab vom|Him- mel Tor|_ _ und|Tür', reiß|
w: werd'! O Erd', her-|für dies Blüm-|* * lein|bring, O|
w: gern; O Sonn', geh|auf! Ohn' dein-|* * en|Schein in|
[M:3/4] A2 G2 (A2- |[M:5/4] AG) F2 G2 E4 |[M:3/4] ^F4 z2 || z6 | A2 c4 | d2 e2 A2 | (c2 B3 c | %21
w: ab, wo Schloß|_ _ und Rei- gel|für!||2.  O Gott,|ein'n Tau vom|Him- * *|
w: Hei- land, aus|* * der Er- den|spring!||4.  Wo bleibst|du, Trost der|ganz- * *|
w: Fin- ster- nis|_ _ wir al- le|sein.||6.  Hie leid-|en wir die|größ- * *|
 d2) B4 | A4 z2 | A2 A2 B2 | c2 (F3 G | A_B) G2 G2 |[M:4/4] !breath!F2 c2 c2 c2 | %27
w: * mel|gieß,|im Tau her-|ab, o _|_ _ Hei- land,|fließ! ihr Wol- ken,|
w: * en|Welt,|dar- auf sie|all' ihr' _|_ _ Hoff- nung|stellt? O komm, o|
w: * te|Not,|vor Au- gen|steht der _|_ _ e- wig'|Tod: ach komm, führ|
[M:3/4] c2 A2 (d2- |[M:2/4] de) d2 | !breath!c2 A2 |[M:3/4] A2 G2 (A2- |[M:5/4] AG) F2 G2 E4 | %32
w: brecht und reg-|* * net|aus den|Kö- nig ü-|* * ber Ja- kobs|
w: komm von höchst-|* * en|Saal, komm,|tröst uns hie'|_ _ im Jam- mer-|
w: uns mit stark-|* * er|Hand vom|E- lend zu|_ _ dem Va- ter-|
[M:3/4] ^F4 |] %33
w: Haus!|
w: tal!|
w: land!|
V:2
 z2 | z2 D2 F2- | F2 G2 A2- | A2 D2 (F2 | E3 D) E2 | D4 z2 | E2 E2 F2 | G4 D2 | (E3 D E2 | F4) E2 | %10
w: |1.  O Hei-|* land, reiß|_ die Him-|* * mel|auf,|her- ab, her-|ab vom|Him- * *|* mel|
w: |3. O Erd',|_ schlag aus,|_ schlag aus,|_ _ o|Erd',|daß Berg und|Tal grün|al- * *|* les|
w: |5.  O klar-|* e Sonn',|_ du schön-|* * er|Stern,|dich woll- ten|wir an-|schau- * *|* en|
[M:4/4] !breath!F2 c2 A2 c2 |[M:3/4] F4 F2 |[M:2/4] _B3 A | !breath!G2 F2 |[M:3/4] F2 G2 E2- | %15
w: lauf! Reiß ab vom|Him- mel|Tor und|Tür', reiß|ab, wo Schloß|
w: werd'! O Erd', her-|für dies|Blüm- lein|bring, O|Hei- land, aus|
w: gern; O Sonn', geh|auf! Ohn'|dein- en|Schein in|Fin- ster- nis|
[M:5/4] E2 D2 D2 C4 |[M:3/4] D4 z2 || z2 D2 F2- | F2 G2 A2- | A2 D2 (F2 | E3 D) E2 | D4 z2 | %22
w: _ und Rei- gel|für!|2.  O Gott,|_ ein'n Tau|_ vom Him-|* * mel|gieß,|
w: _ der Er- den|spring!|4.  Wo bleibst|_ du, Trost|_ der ganz-|* * en|Welt,|
w: _ wir al- le|sein.|6.  Hie leid-|* en wir|_ die größ-|* * te|Not,|
 E2 E2 F2 | G4 D2 | (E3 D E2 | F4) E2 |[M:4/4] !breath!F2 c2 A2 c2 |[M:3/4] F4 F2 |[M:2/4] _B3 A | %29
w: im Tau her-|ab, o|Hei- * *|* land,|fließ! ihr Wol- ken,|brecht und|reg- net|
w: dar- auf sie|all' ihr'|Hoff- * *|* nung|stellt? O komm, o|komm von|höchst- en|
w: vor Au- gen|steht der|e- * *|* wig'|Tod: ach komm, führ|uns mit|stark- er|
 !breath!G2 F2 |[M:3/4] F2 G2 E2- |[M:5/4] E2 D2 D2 C4 |[M:3/4] D4 |] %33
w: aus den|Kö- nig ü-|* ber Ja- kobs|Haus!|
w: Saal, komm,|tröst uns hie'|_ im Jam- mer-|tal!|
w: Hand vom|E- lend zu|_ dem Va- ter-|land!|
V:3
 A,2 | C4 D2 | E4 A,2 | C2 B,4 | A,4 z2 | B,2 B,2 C2 | D4 A,2 | (C3 D) B,2 | A,4 z2 | z6 | %10
w: 1.  O|Hei- land,|reiß die|Him- mel|auf,|her- ab, her-|ab vom|Him- * mel|lauf!||
w: 3. O|Erd', schlag|aus, schlag|aus, o|Erd',|daß Berg und|Tal grün|al- * les|werd'!||
w: 5.  O|klar- e|Sonn', du|schön- er|Stern,|dich woll- ten|wir an-|schau- * en|gern;||
[M:4/4] F2 F4 F2 |[M:3/4] E4 D2 |[M:2/4] G2 F2 | !breath![CE]2 D2 |[M:3/4] D4 D2 | %15
w: Reiß ab vom|Him- mel|Tor und|Tür', reiß|ab, wo|
w: O Erd', her-|für dies|Blüm- lein|bring, O|Hei- land,|
w: O Sonn', geh|auf! Ohn'|dein- en|Schein in|Fin- ster-|
[M:5/4] A,4 A,2 A,2 G,2 |[M:3/4] A,4 A,2 || C4 D2 | E4 A,2 | C2 B,4 | A,4 z2 | B,2 B,2 C2 | %22
w: Schloß und Rei- gel|für! 2.  O|Gott, ein'n|Tau vom|Him- mel|gieß,|im Tau her-|
w: aus der Er- den|spring! 4.  Wo|bleibst du,|Trost der|ganz- en|Welt,|dar- auf sie|
w: nis wir al- le|sein. 6.  Hie|leid- en|wir die|größ- te|Not,|vor Au- gen|
 D4 A,2 | (C3 D) B,2 | A,4 z2 | z6 |[M:4/4] F2 F4 F2 |[M:3/4] E4 D2 |[M:2/4] G2 F2 | %29
w: ab, o|Hei- * land,|fließ!||ihr Wol- ken,|brecht und|reg- net|
w: all' ihr'|Hoff- * nung|stellt?||O komm, o|komm von|höchst- en|
w: steht der|e- * wig'|Tod:||ach komm, führ|uns mit|stark- er|
 !breath![CE]2 D2 |[M:3/4] D4 D2 |[M:5/4] A,4 A,2 A,2 G,2 |[M:3/4] A,4 |] %33
w: aus den|Kö- nig|ü- ber Ja- kobs|Haus!|
w: Saal, komm,|tröst uns|hie' im Jam- mer-|tal!|
w: Hand vom|E- lend|zu dem Va- ter-|land!|
V:4
 x2 | x6 | x6 | x6 | x6 | x6 | x6 | x6 | x6 | x6 |[M:4/4] x8 |[M:3/4] x6 |[M:2/4] G2 G2 | x4 | %14
[M:3/4] x6 |[M:5/4] x10 |[M:3/4] x6 || x6 | x6 | x6 | x6 | x6 | x6 | x6 | x6 | x6 |[M:4/4] x8 | %27
[M:3/4] x6 |[M:2/4] G2 G2 | x4 |[M:3/4] x6 |[M:5/4] x10 |[M:3/4] x4 |] %33

